www/source/img/svg/medal_star.svg

<svg width="63" height="63" viewBox="0 0 63 63" fill="none" xmlns="http://www.w3.org/2000/svg">
<g clip-path="url(#clip0)">
<path d="M55.0014 32.1876L45.3977 30.9121L51.7752 1.80071C51.9252 0.900354 51.25 0 50.2746 0H12.7599C11.7845 0 11.1092 0.900354 11.2593 1.80071L17.7118 30.9121L8.033 32.1876C6.83253 32.3377 6.23229 33.8383 7.20767 34.7386L18.5371 45.6179L15.686 61.2241C15.4609 62.4996 16.8114 63.3999 17.8619 62.7997L31.5172 55.2967L45.1726 62.8747C43.5219 61.8993 47.3484 64.6004 47.3484 61.2991L44.4973 45.693L55.8268 34.8137C56.7271 33.9133 56.2019 32.4127 55.0014 32.1876ZM33.0178 3.00118H48.3989L42.3215 30.537L39.5454 30.1619L33.0178 16.1313V3.00118ZM14.6356 3.00118H30.0166V16.1313L23.4891 30.1619L20.713 30.537L14.6356 3.00118ZM41.8713 44.0423C41.4961 44.4175 41.3461 44.8676 41.4211 45.3928L43.8221 58.673L32.2675 52.2205C32.0424 52.0705 31.8173 51.9954 31.5172 51.9954C31.2921 51.9954 30.992 52.0705 30.7669 52.2205L19.1374 58.673L21.5383 45.3928C21.6133 44.8676 21.4633 44.4175 21.0881 44.0423L11.5594 34.7386L24.6895 33.013C25.2147 32.9379 25.6649 32.6378 25.815 32.1876L31.5172 20.0329L37.1444 32.1876C37.3695 32.6378 37.8197 32.9379 38.2699 33.013L51.4 34.7386L41.8713 44.0423Z" fill="#FF6D1C"/>
</g>
<defs>
<clipPath id="clip0">
<rect width="63" height="63" fill="white"/>
</clipPath>
</defs>
</svg>

<svg width="63" height="63" fill="none" xmlns="http://www.w3.org/2000/svg"><g clip-path="url(#clip0)"><path d="M55.001 32.188l-9.603-1.276 6.377-29.111C51.925.9 51.25 0 50.275 0H12.76c-.976 0-1.65.9-1.5 1.8l6.452 29.112-9.679 1.276c-1.2.15-1.8 1.65-.825 2.55l11.33 10.88-2.852 15.606c-.225 1.276 1.125 2.176 2.176 1.576l13.655-7.503 13.656 7.578c-1.651-.976 2.175 1.725 2.175-1.576l-2.85-15.606 11.329-10.88c.9-.9.375-2.4-.826-2.625zM33.018 3h15.38l-6.077 27.536-2.776-.375-6.527-14.03V3.001zM14.636 3h15.38v13.13l-6.527 14.03-2.776.376L14.636 3zM41.87 44.042a1.513 1.513 0 00-.45 1.35l2.401 13.281-11.555-6.453a1.268 1.268 0 00-.75-.225c-.225 0-.525.076-.75.226l-11.63 6.452 2.401-13.28a1.513 1.513 0 00-.45-1.35l-9.529-9.304 13.13-1.726c.526-.075.976-.375 1.126-.825l5.702-12.155 5.627 12.155c.226.45.676.75 1.126.825l13.13 1.726-9.529 9.303z" fill="#FF6D1C"/></g><defs><clipPath id="clip0"><path fill="#fff" d="M0 0h63v63H0z"/></clipPath></defs></svg>
